!!!COM: Bach, Johann Sebastian
!!!CDT: 1685/3//-1750/7/28/
!!!OTL@@DE: Meinen Jesum lass ich nicht
!!!AGN: 4-Part Chorale
!!!SCT: BH 299
!!!SCT: BWV 380
**harm	**root	**kern	**kern	**kern	**kern
!	!	!bass	!tenor	!alto	!soprno
*	*Iorgan	*Iorgan	*Iorgan	*Iorgan	*Iorgan
*M4/4	*M4/4	*M4/4	*M4/4	*M4/4	*M4/4
*met(c)	*met(c)	*met(c)	*met(c)	*met(c)	*met(c)
*MM60	*MM60	*MM60	*MM60	*MM60	*MM60
*k[]	*k[]	*k[]	*k[]	*k[]	*k[]
*F-:	*F-:	*F-:	*F-:	*F-:	*F-:
=1-	=1-	=1-	=1-	=1-	=1-
I	4EE-	8F-	4f-	4a-	4cc-
.	.	8G-	.	.	.
Ib	4EE-	8A-	4f-	4a-	4cc-
.	.	8F-	.	.	.
IV	4AA-	8B--	4d-	4f-	4dd-
.	.	8A-	.	.	.
iib	4FF	8B--	4g-	4b--	4dd-
.	.	8G-	.	.	.
=2	=2	=2	=2	=2	=2
V7	4BB-	4c-	8g-	8b--	4ee-
.	.	.	8f-	8a-	.
V7	4BB-	4C-	8g-	4b--	8ee-
.	.	.	8e-	.	16ff-
.	.	.	.	.	16gg-
I;	2EE-;	2F-;	2c-;	2a-;	2ff-;
=3	=3	=3	=3	=3	=3
V	4BB-	8C-	8e-	4cc-	4gg-
.	.	8D-	8f-	.	.
Vb	4BB-	8E-	8g-	8cc-	4gg-
.	.	8C-	8e-	8b--	.
vi	4CC	8D-	8e-	4.a-	4ff-
.	.	8E-	16d-	.	.
.	.	.	16c	.	.
vi	8CC	8F-	4d-	.	4ff-
V7/V	8FF	8G-	.	8b-	.
=4	=4	=4	=4	=4	=4
iii	4GG	8A-	4c-	8cc-	4ee-
.	.	8G-	.	8b-	.
I	8EE-	8F-	4c-	8a-	8dd-
vi7	8CC	8D-	.	8f-	16ee-
.	.	.	.	.	16ff-
V/V	4FF	4G-	8c-	4.g-	2dd-
.	.	.	8A-	.	.
V/V	4FF	4GG-	4B-	.	.
.	.	.	.	8f-	.
=5	=5	=5	=5	=5	=5
V;	2BB-;	2C-;	2G-;	2e-;	2cc-;
I	4EE-	8F-	8A-	4f-	4cc-
.	.	8G-	8B--y	.	.
Ib	4EE-	8A-	8c-	4f-	4cc-
.	.	8F-	8A-	.	.
=6	=6	=6	=6	=6	=6
IV	4AA-	8B--	8B--	4f-	4dd-
.	.	8A-	8c-	.	.
ii	4FF	8G-	4d-	4b--	4dd-
.	.	8F-	.	.	.
V7b	8BB-	8E-	8G-	8b--	4cc-
viio/ii	8EE	8F	8A-	8a-	.
ii	4FF	4G-	8B--	4g-	8b--
.	.	.	8c-	.	8a-
!!linebreak: 2
=7	=7	=7	=7	=7	=7
VI;	2CC;	2D-;	2d-;	2f;	2a-;
viiob/II	4EE	8A-	8c-	8f	4cc-
.	.	8G-	8B--	8g-	.
V7b/II	4CC	8F	4A-	8a-	4cc-
.	.	8D-	.	8f	.
=8	=8	=8	=8	=8	=8
ii	4FF	8G-	4B--	4d-	4b--
.	.	8F-y	.	.	.
V7b	4BB-	8E-	4c-	8g-	4b--
.	.	8C-	.	8e-	.
I	4EE-	8F-	4c-	4f-	4a-
.	.	8A-	.	.	.
ii7b	8FF	8B--	8d-	4f-	8g-
ii7	8FF	8G-	8B--	.	16a-
.	.	.	.	.	16b--
=9	=9	=9	=9	=9	=9
V	4BB-	4c-	8c-	4f-	2g-
.	.	.	8A-	.	.
V7	4BB-	4C-	4B--	4e-	.
I;	2EE-;	2F-;	2A-;	2c-;	2f-;
=10	=10	=10	=10	=10	=10
I	4EE-	8f-	4f-	4a-	4cc-
.	.	8e--	.	.	.
vi7	4CC	8d-	4f-	4a-	4cc-
.	.	8c-	.	.	.
IV	4AA-	8B--	4f-	4b--	4dd-
.	.	8A-	.	.	.
ii	4FF	8G-	4g-	8b--	4dd-
.	.	8F-	.	8a-	.
=11	=11	=11	=11	=11	=11
viiob/vi	4BB	8E-	8c	4g-	4ee-
.	.	8D-	8d-	.	.
V/vi	8GG	8C	8e-	4a-	8ee-
V/vi	8GG	8AA-	8c	.	16ff-
.	.	.	.	.	16gg-
vi;	2CC;	2D-;	2d-;	2a-;	2ff-;
=12	=12	=12	=12	=12	=12
I	4EE-	8F-	4A-	4f-	4cc-
.	.	8E--	.	.	.
vi7	4CC	8D-	4A-	4f-	8cc-
.	.	8C-	.	.	16dd-
.	.	.	.	.	16ee--
IV	8AA-	8BB--	8B--	8f-	8dd-
V	8BB-	8C-	8G-	8e-	8cc-
IVb	8AA-	8D-	8F-	4f-	8b--
Ic	8EE-	8C-	8c-	.	8a-
=13	=13	=13	=13	=13	=13
ii7b	4FF	4BB--	4d-	4f-	8g-
.	.	.	.	.	16a-
.	.	.	.	.	16b--
V	4BB-	4C-	8c-	4e-	4g-
.	.	.	8B--	.	.
I;	2EE-;	2F-;	2A-;	2c-;	2f-;
==	==	==	==	==	==
*-	*-	*-	*-	*-	*-
!!chor2scor: -l 2 -s 0.6 -o %b.pmx
!!!YEC: Copyright 1994, David Huron
!!!YEC: Changes/Additions 2001 by Craig Stuart Sapp
!!!YEN: United States of America
!!!SMA: 371 Bach Chorales, edited by Ludwig Erk, C.F. Peters
!!!PDT: 1850, 1865
!!!ONB: Harmony and Root analysis done manually
